X:1
T:Title
%%score { 1 | 2 }
L:1/8
Q:1/4=100
M:6/8
K:F
V:1 treble nm="Grand Piano"
V:2 bass 
V:1
 A>AA BA_A | A3 F3 | c>cc B[Ec][EB] | A6 | A>AA BA_A | A3 c3 | =B>BB BAB | [Ec]6 | %8
w: Walter~G.~Tyler * * * * *||||||||
 [GB]>[GB][GB] [GB][FA][EG] | [FA]3 [Fc]3 | [GB]>[GB][GB] [GB][FA][EG] | A3 c3 | A>AA [Fc]3 | %13
w: |||||
[M:15/16] [FB]>[FB][FB][F=B]3/2- [FB]3 |[M:3/4] [Fc]>[Fc] [Fc][Ec] [EG][EA] | [CF]6 |] %16
w: |||
V:2
 [F,CF]>[F,CF][F,CF] [F,DF][F,CF][F,=B,F] | [F,CF]3 [F,A,C]3 | %2
 [A,CF]>[A,CF][A,CF][K:bass] [G,CE][C,C][C,C] | [F,CF]6 | %4
 [F,CF]>[K:treble][F,CF][F,CF] [F,DF][F,CF][F,=B,F] | [F,CF]3 [F,A,F]3 | %6
 [G,DF]>[G,DF][G,DF] [G,DF][G,CF][G,DF] | [C,C]6 | [C,C]>[C,C][C,C] [C,C][C,C][C,C] | %9
 [F,C]3 [F,A,]3 | [C,C]>[C,C][C,C] [C,C][C,C][C,C] | [F,CF]3 [F,A,F]3 | %12
 [F,CF]>[F,CF][F,CF] [_E,A,]3 |[M:15/16] [D,B,]>[D,B,][D,B,][^C,_A,]3/2- [C,A,]3 | %14
[M:3/4] [C,A,]>[C,A,] [C,A,][C,G,] [C,B,][C,C] | [F,A,]6 |] %16

